X:1
T:Gondoliera
T:Clara Schumann
T:Emanuel Geibel
T:Gondoliera
T:CPDL   —   Creative Commons Attribution Non Commercial 3.0
T:CPDL   —   Creative Commons Attribution Non Commercial 3.0
T:CPDL   —   Creative Commons Attribution Non Commercial 3.0
T:CPDL   —   Creative Commons Attribution Non Commercial 3.0
T:CPDL   —   Creative Commons Attribution Non Commercial 3.0
C:Clara Schumann
Z:Emanuel Geibel
Z:CPDL   —   Creative Commons Attribution Non Commercial 3.0
%%score [ ( 1 2 ) ( 3 4 ) ( 5 6 ) ( 7 8 ) ]
L:1/8
M:9/8
K:Ab
V:1 treble nm="Sopran"
V:2 treble 
V:3 treble nm="Alt"
V:4 treble 
V:5 treble-8 nm="Tenor"
V:6 treble-8 
V:7 bass nm="Bass"
V:8 bass 
V:1
!p!!<(! c d2 f!<)! | e3- e2 c A2!>(! d | c3- (c2!>)! A) F2 G | A3!<(! (AB)c e2!<)!!>(! d | %4
w: 1. O komm zu|mir, _ o komm zu|mir, _ wenn durch die|Nacht wan- delt das Ster- nen-|
w: 2. Das ist für|Lie- * ben- de die|Stund, _ _ _ wie|* du, _ wie ich und|
 c3- c2!>)! c B2 B | e3- e2!<(! B f2 B!<)! |!mf! g3- g2 B!>(! e=dc!>)! | B6- BAF | E3- E2 | %9
w: heer, _ dann schwebt mit|uns _ in Mon- des-|pracht _ die Gon- * del|ü- * * bers|Meer. _|
w: du, _ so fried- lich|blaut _ des Him- mels|Rund, _ so schläft _ das|Meer _ _ in|Ruh'. _|
!<(! E EG!<)!!>(! F | E3- E2!>)! z z2!<(! =E | F=A!<)!c F3- F2 F |!<(! FB!<)!!>(!_A!>)! G3- G2 G | %13
w: Die Luft _ ist|weich _ wie|Lie- * bes- scherz, _ sanft|spielt _ der gold'- * ne,|
w: Und wie _ es|schläft, _ da|sagt _ der Blick, _ was|nie, _ was nie _ die|
!<(! G=B!<)!=d G3- G2!p! G | G2 G A2"^cresc." =A | =A2 B | _c6 c3 | _c"^dim."_fe =d3 B3 | e3- e2 | %19
w: gold'- * ne Schein, _ die|Zi- ther klingt und|zieht dein|Herz mit|in _ die Lust hin-|ein. _|
w: Zun- * ge spricht, _ die|Lip- pe zieht sich|nicht zu-|rück, und|wehrt _ dem Kus- se|nicht. _|
!p! c!<(! _d2 f!<)! | e3- e2 c A2!>(! d | c3- c2!>)! A F2 G | A3!<(! ABc e2!<)!!>(! d | %23
w: 1\-2. O komm zu|mir, _ o komm zu|mir, _ wenn durch die|Nacht wan- delt das Ster- nen-|
w: _ _ _||||
 c3- c2!>)! A A2 A | d3- d2"^cresc." A e2 A | f3- f2!f! f agf | e6- e2 =d | e3- e2 A!>(! e_dc!>)! | %28
w: heer, _ dann schwebt mit|uns _ in Mon- des-|pracht _ die Gon- * del|ü- * bers|Meer, _ die Gon- * del|
w: |||||
 B6- BFG | A3- !fermata!A2 |] %30
w: ü- * * bers|Meer. _|
w: ||
V:2
 x4 | x9 | x6 FF x | A2 A x6 | x9 | x9 | x9 | x9 | x5 | x4 | x9 | x9 | x9 | x9 | x6 | x3 | x9 | %17
w: |||||||||||||||||
w: ||Lieb- chen,|ich und||||||||||||||
 x9 | x5 | x4 | x9 | x9 | x9 | x9 | x9 | x9 | x9 | x9 | x9 | x5 |] %30
w: |||||||||||||
w: |||||||||||||
V:3
!p!!<(! E E2 E!<)! | E3- E2 E E2!>(! E | E3- (E2!>)! E) D2 E | E3!<(! (EE)E!<)! E2!>(! E | %4
w: ||||
w: ||||
 E3- E2!>)! E =DEF | B3- B2!<(! B A2 B!<)! |!mf! G3- G2 G!>(! (cB)A!>)! | %7
w: ||pracht _ die Gon- del, die|
w: ||Rund, _ so schläft, _ es|
!<(! (G2 =A!<)!!>(! _A2) =G!>)!"^dim." E2 =D | E3- E2 | _D D2 D | D2!<(! E E!<)!G!>(!F E2!>)! z | %11
w: Gon- * * del ü- bers|Meer. _|Die Luft ist|weich, die Luft _ ist weich|
w: schläft, _ _ es schläft das|Ruh'. _|Und wie es|schläft, und wie _ es schläft,|
 z2 C!<(! CED!<)! C2 C | D2 D!<(! =D!<)!F!>(!E!>)! D2 F |!<(! F2!<)! F E3- E2!p! E | %14
w: wie Lie- * bes- scherz, sanft|spielt, sanft spielt _ der gold'- ne,|gold'- ne Schein, _ die|
w: da sagt _ der Blick, was|nie, was nie, _ was nie die|Zun- ge spricht, _ die|
 E2 E E2"^cresc." _G | _G2 G | _G6 G3 | _F2 F (=F2 E =DC)D | E3- E2 |!p! E!<(! E2 E!<)! | %20
w: Zi- ther klingt und|||* * Lust _ _ _ hin-|ein. _|_ _ _|
w: Lip- pe zieht sich|||* * Kus- * * * se|nicht. _|_ _ _|
 E3- E2 E E2!>(! E | E3- E2!>)! E D2 E | E3!<(! EEE E2!<)!!>(! E | E3- E2!>)! C CDE | %24
w: ||||
w: ||||
 A3- A2"^cresc." A _G2 A | F3- F2 z z2 z | z2!f! B A2!>(! _G F2 F | E3- E2!>)! A A2 A | %28
w: ||die Gon- del ü- bers|Meer, _ die Gon- del|
w: ||||
 (A3"^dim." G2 F E2) D | C3- !fermata!C2 |] %30
w: ü- * * * bers|Meer. _|
w: ||
V:4
 x4 | x9 | x6 DD x | E2 E x6 | x9 | x9 | x9 | x9 | x5 | x4 | x9 | x9 | x9 | x9 | x6 | x3 | x9 | %17
 x9 | x5 | x4 | x9 | x9 | x9 | x9 | x9 | x9 | x9 | x9 | x9 | x5 |] %30
V:5
!p!!<(! A B2 d!<)! | c3- c2 A A2!>(! B | c3- (c2!>)! A) A2 B | A3!<(! (AG)A!<)! A2!>(! B | %4
w: 1. O komm zu|mir, _ o komm zu|mir, _ wenn durch die|Nacht wan- delt das Ster- nen-|
w: 2. Das ist für|Lie- * ben- de die|Stund, _ _ _ wie|* du, _ wie ich und|
 A3- A2!>)! A Bc=d | e3- e2!<(! B B2 B!<)! |!mf! B3- B2 z z2 =d | %7
w: heer, _ dann schwebt _ mit|uns _ in Mon- des \-||
w: du, _ so fried- * lich|blaut _ des Him- mels||
!<(! (e2 _g!<)!!>(! f2) e!>)!"^dim." =dcA | G3- G2 | G G2 A | G2!<(! G G!<)!B!>(!A G2!>)! z | %11
w: ||||
w: ||||
 z2 =A!<(! AcB!<)! A2 A | B2 B!<(! =B=d!<)!!>(!c!>)! B2 B | (=B3!<(! ce)!<)!g c2!p! e | %14
w: |* sanft spielt _ der gold'- ne,|gold'- * * ne Schein, *|
w: |* was nie, _ was nie die|Zun- * * ge spricht, *|
 e2 e e2"^cresc." e | e2 e | e6 e3 | _c2"^dim." c B3 A3 | G3- G2 |!p! A!<(! B2 d!<)! | %20
w: |zieht dein|Herz mit|in die Lust hin-|ein. _|1\-2. O komm zu|
w: |nicht zu-|rück, und|wehrt dem Kus- se|nicht. _|_ _ _|
 c3- c2 A A2!>(! B | c3- c2!>)! A A2 B | A3!<(! AGA A2!<)!!>(! B | A3- A2!>)! A ABc | %24
w: mir, _ o komm zu|mir, _ wenn durch die|Nacht wan- delt das Ster- nen-|heer, _ dann schwebt _ mit|
w: ||||
 d3- d2"^cresc." A A2 A | A3- A2 z z2 z | z2!f! e e2!>(! d c2 B | B3- B2!>)! c!<(! cde!<)! | %28
w: uns _ in Mon- des-|pracht _|die Gon- del ü- bers|Meer, _ die Gon- * del|
w: ||||
 (f3"^dim." e2 _d c2) B | A3- !fermata!A2 |] %30
w: ü- * * * bers|Meer. _|
w: ||
V:6
 x4 | x9 | x6 AA x | A2 A x6 | x9 | x9 | x9 | x9 | x5 | x4 | x9 | x9 | x9 | x9 | x6 | x3 | x9 | %17
w: |||||||||||||||||
w: ||Lieb- chen,|ich und||||||||||||||
 x9 | x5 | x4 | x9 | x9 | x9 | x9 | x9 | x9 | x9 | x9 | x9 | x5 |] %30
w: |||||||||||||
w: |||||||||||||
V:7
!p!!<(! A, A,2 A,!<)! | A,3- A,2 G, F,2!>(! G, | A,3- (A,2!>)! C,) D,2 D, | %3
w: |||
w: |||
 C,3!<(! (C,B,,)A,,!<)! F,2!>(! G, | A,3- A,2!>)! A, A,2 A, | G,3- G,2!<(! G, =D,2 D,!<)! | %6
w: |||
w: |||
!mf! E,3- E,2 z z2 z | z2 C, =D,2 E,"^dim." A,,2 B,, | E,3- E,2 | E, E,2 E, | E,2 z z2 z z2 z | %11
w: pracht _|die Gon- del ü- bers|Meer. _|Die Luft ist|weich,|
w: Rund, _|es schläft das Meer in|Ruh'. _|Und wie es|schläft,|
 z2 z!<(! z2!<)! E, E,2 E, | E,2 z!<(! z2!<)!!>(! z!>)! z2 E, | E,2 E,!<(! E,3- E,2!p! D | %14
w: wie Lie- bes-|scherz, der|gold'- ne Schein, _ die|
w: da sagt der|Blick, die|Zun- ge spricht, _ die|
 D2 D C2"^cresc." _C | _C2 B, | =A,6 A,3 | _A,2"^dim." A, A,3 B,,3 | E,3- E,2 | z4 | %20
w: Zi- ther klingt und||||||
w: Lip- pe zieht sich||||||
 z2!p! A, (A,2 G, F,2) G, | A,3- A,2!<)! C, D,2 D, | C,3!<(! C,B,,A,, F,2!<)!!>(! G, | %23
w: 1\-2. O komm _ _ zu|mir, _ _ _ _|_ _ _ _ _ _|
w: |||
 A,3- A,2!>)! _G, G,2 G, | F,3- F,2"^cresc." F, C,2 C, | D,3- D,2 z z2 z | %26
w: |||
w: |||
 z2!f! D C2!>(! B, =A,2 _A, | G,3- G,2!>)! _G, F,2 E, | (=D,3"^dim." E,3- E,2) E, | %29
w: |||
w: |||
 A,,3- !fermata!A,,2 |] %30
w: |
w: |
V:8
 x4 | x9 | x6 D,D, x | C,2 C, x6 | x9 | x9 | x9 | x9 | x5 | x4 | x9 | x9 | x9 | x9 | x6 | x3 | x9 | %17
 x9 | x5 | x4 | x9 | x9 | x9 | x9 | x9 | x9 | x9 | x9 | x9 | x5 |] %30

